X: 10923
M: 6/8
L: 1/8
K: F
[|\
[|\
f2f fed | c2d cBA | BAG Gdc | BAG FAc |\
f2f fed | c2d cBA | Bdc BAG | FAc f2"^D.C."z |]
[|\
d^cd fed | ^c2e a2g | fag fed | ^cec A=B^c |\
d^cd fed | b2a g3 | faf ege | d3 c=B"^D.C."_B |]


